packages/bezier-icons/icons/group-remove-filled.svg

<svg width="24" height="24" viewBox="0 0 24 24" fill="none" xmlns="http://www.w3.org/2000/svg">
<path fill-rule="evenodd" clip-rule="evenodd" d="M12.5843 7.59976C12.5843 9.58776 10.9723 11.1998 8.98428 11.1998C6.99628 11.1998 5.38428 9.58776 5.38428 7.59976C5.38428 5.61176 6.99628 3.99976 8.98428 3.99976C10.9723 3.99976 12.5843 5.61176 12.5843 7.59976ZM20.7266 10.7266C20.3621 11.0911 19.7712 11.0911 19.4067 10.7266L17.5 8.81987L15.5933 10.7266C15.2288 11.0911 14.6379 11.0911 14.2734 10.7266C13.9089 10.3621 13.9089 9.77113 14.2734 9.40664L16.1801 7.49994L14.2734 5.59324C13.9089 5.22875 13.9089 4.6378 14.2734 4.27331C14.6379 3.90882 15.2288 3.90882 15.5933 4.27331L17.5 6.18001L19.4067 4.27331C19.7712 3.90882 20.3621 3.90882 20.7266 4.27331C21.0911 4.6378 21.0911 5.22875 20.7266 5.59324L18.8199 7.49994L20.7266 9.40664C21.0911 9.77113 21.0911 10.3621 20.7266 10.7266ZM8.98429 12.0001C4.74229 12.0001 1.27129 15.3021 1.00129 19.4761C0.983291 19.7601 1.22229 20.0001 1.50729 20.0001H16.4613C16.7463 20.0001 16.9853 19.7601 16.9673 19.4761C16.6973 15.3021 13.2263 12.0001 8.98429 12.0001ZM15.3143 13.6111C15.6943 13.5421 16.0843 13.5001 16.4843 13.5001C19.8983 13.5001 22.6973 16.1311 22.9633 19.4771C22.9853 19.7611 22.7463 20.0001 22.4613 20.0001H18.4643C18.1953 20.0001 17.9853 19.7871 17.9713 19.5191C17.8493 17.2141 16.8543 15.1371 15.3143 13.6111Z" fill="#313234"/>
</svg>

<svg xmlns="http://www.w3.org/2000/svg" width="24" height="24" fill="none" viewBox="0 0 24 24"><path fill="#313234" fill-rule="evenodd" d="M12.584 7.6a3.6 3.6 0 1 1-7.2 0 3.6 3.6 0 0 1 7.2 0m8.143 3.127a.933.933 0 0 1-1.32 0L17.5 8.82l-1.907 1.907a.933.933 0 1 1-1.32-1.32L16.18 7.5l-1.907-1.907a.933.933 0 1 1 1.32-1.32L17.5 6.18l1.907-1.907a.933.933 0 1 1 1.32 1.32L18.82 7.5l1.907 1.907a.933.933 0 0 1 0 1.32M8.984 12a8 8 0 0 0-7.983 7.476.504.504 0 0 0 .506.524h14.954c.285 0 .524-.24.506-.524A8 8 0 0 0 8.984 12m6.33 1.611c.38-.069.77-.11 1.17-.11a6.5 6.5 0 0 1 6.48 5.976.497.497 0 0 1-.503.523h-3.997a.497.497 0 0 1-.493-.48 8.97 8.97 0 0 0-2.657-5.909" clip-rule="evenodd"/></svg>
